icons/modern/file-folder.svg

<svg width="32" height="32" viewBox="0 0 32 32" fill="none" xmlns="http://www.w3.org/2000/svg">
<g filter="url(#filter0_ii_18_22534)">
<path d="M3.82416 4.125C2.85767 4.125 2.07416 4.90851 2.07416 5.875V10.9375C2.07416 10.9941 2.07684 11.05 2.08209 11.1052V25.1875C2.08209 26.154 2.8656 26.9375 3.83209 26.9375H28.1758C29.1423 26.9375 29.9258 26.154 29.9258 25.1875V9.78125C29.9258 8.81476 29.1423 8.03125 28.1758 8.03125H17.3109C16.7965 8.03125 16.3019 7.83305 15.9298 7.47784L12.9976 4.67841C12.6255 4.3232 12.1309 4.125 11.6165 4.125H3.82416Z" fill="url(#paint0_linear_18_22534)"/>
<path d="M3.82416 4.125C2.85767 4.125 2.07416 4.90851 2.07416 5.875V10.9375C2.07416 10.9941 2.07684 11.05 2.08209 11.1052V25.1875C2.08209 26.154 2.8656 26.9375 3.83209 26.9375H28.1758C29.1423 26.9375 29.9258 26.154 29.9258 25.1875V9.78125C29.9258 8.81476 29.1423 8.03125 28.1758 8.03125H17.3109C16.7965 8.03125 16.3019 7.83305 15.9298 7.47784L12.9976 4.67841C12.6255 4.3232 12.1309 4.125 11.6165 4.125H3.82416Z" fill="url(#paint1_linear_18_22534)"/>
</g>
<g filter="url(#filter1_ii_18_22534)">
<rect x="2.07416" y="11.0625" width="27.8438" height="18.9062" rx="1.75" fill="url(#paint2_linear_18_22534)"/>
</g>
<rect x="2.07416" y="11.0625" width="27.8438" height="18.9062" rx="1.75" fill="url(#paint3_linear_18_22534)"/>
<defs>
<filter id="filter0_ii_18_22534" x="1.77416" y="4.125" width="28.2517" height="23.1125" filterUnits="userSpaceOnUse" color-interpolation-filters="sRGB">
<feFlood flood-opacity="0" result="BackgroundImageFix"/>
<feBlend mode="normal" in="SourceGraphic" in2="BackgroundImageFix" result="shape"/>
<feColorMatrix in="SourceAlpha" type="matrix" values="0 0 0 0 0 0 0 0 0 0 0 0 0 0 0 0 0 0 127 0" result="hardAlpha"/>
<feOffset dx="-0.3" dy="0.3"/>
<feGaussianBlur stdDeviation="0.375"/>
<feComposite in2="hardAlpha" operator="arithmetic" k2="-1" k3="1"/>
<feColorMatrix type="matrix" values="0 0 0 0 1 0 0 0 0 0.862745 0 0 0 0 0.337255 0 0 0 1 0"/>
<feBlend mode="normal" in2="shape" result="effect1_innerShadow_18_22534"/>
<feColorMatrix in="SourceAlpha" type="matrix" values="0 0 0 0 0 0 0 0 0 0 0 0 0 0 0 0 0 0 127 0" result="hardAlpha"/>
<feOffset dx="0.1" dy="0.1"/>
<feGaussianBlur stdDeviation="0.3"/>
<feComposite in2="hardAlpha" operator="arithmetic" k2="-1" k3="1"/>
<feColorMatrix type="matrix" values="0 0 0 0 0.937255 0 0 0 0 0.67451 0 0 0 0 0.294118 0 0 0 1 0"/>
<feBlend mode="normal" in2="effect1_innerShadow_18_22534" result="effect2_innerShadow_18_22534"/>
</filter>
<filter id="filter1_ii_18_22534" x="1.97416" y="10.9625" width="28.0438" height="19.3063" filterUnits="userSpaceOnUse" color-interpolation-filters="sRGB">
<feFlood flood-opacity="0" result="BackgroundImageFix"/>
<feBlend mode="normal" in="SourceGraphic" in2="BackgroundImageFix" result="shape"/>
<feColorMatrix in="SourceAlpha" type="matrix" values="0 0 0 0 0 0 0 0 0 0 0 0 0 0 0 0 0 0 127 0" result="hardAlpha"/>
<feOffset dx="-0.1" dy="0.3"/>
<feGaussianBlur stdDeviation="0.375"/>
<feComposite in2="hardAlpha" operator="arithmetic" k2="-1" k3="1"/>
<feColorMatrix type="matrix" values="0 0 0 0 1 0 0 0 0 0.94902 0 0 0 0 0.32549 0 0 0 1 0"/>
<feBlend mode="normal" in2="shape" result="effect1_innerShadow_18_22534"/>
<feColorMatrix in="SourceAlpha" type="matrix" values="0 0 0 0 0 0 0 0 0 0 0 0 0 0 0 0 0 0 127 0" result="hardAlpha"/>
<feOffset dx="0.1" dy="-0.1"/>
<feGaussianBlur stdDeviation="0.15"/>
<feComposite in2="hardAlpha" operator="arithmetic" k2="-1" k3="1"/>
<feColorMatrix type="matrix" values="0 0 0 0 0.941176 0 0 0 0 0.690196 0 0 0 0 0.364706 0 0 0 1 0"/>
<feBlend mode="normal" in2="effect1_innerShadow_18_22534" result="effect2_innerShadow_18_22534"/>
</filter>
<linearGradient id="paint0_linear_18_22534" x1="16" y1="4.75" x2="16" y2="11.75" gradientUnits="userSpaceOnUse">
<stop stop-color="#FFD152"/>
<stop offset="1" stop-color="#FFB83D"/>
</linearGradient>
<linearGradient id="paint1_linear_18_22534" x1="16.7475" y1="11.3155" x2="16.7475" y2="10.3434" gradientUnits="userSpaceOnUse">
<stop stop-color="#FEB63B"/>
<stop offset="1" stop-color="#FEB63B" stop-opacity="0"/>
</linearGradient>
<linearGradient id="paint2_linear_18_22534" x1="15.996" y1="11.0625" x2="15.996" y2="29.9688" gradientUnits="userSpaceOnUse">
<stop stop-color="#FFE155"/>
<stop offset="1" stop-color="#FFB45F"/>
</linearGradient>
<linearGradient id="paint3_linear_18_22534" x1="19.882" y1="30.1827" x2="19.882" y2="28.2458" gradientUnits="userSpaceOnUse">
<stop stop-color="#F9928A"/>
<stop offset="1" stop-color="#FFAD5F" stop-opacity="0"/>
</linearGradient>
</defs>
</svg>

<svg width="32" height="32" fill="none" xmlns="http://www.w3.org/2000/svg"><g filter="url(#a)"><path d="M3.824 4.125a1.75 1.75 0 0 0-1.75 1.75v5.063c0 .056.003.112.008.167v14.082c0 .967.784 1.75 1.75 1.75h24.344a1.75 1.75 0 0 0 1.75-1.75V9.781a1.75 1.75 0 0 0-1.75-1.75H17.31a2 2 0 0 1-1.381-.553l-2.932-2.8a2 2 0 0 0-1.381-.553H3.824Z" fill="url(#b)"/><path d="M3.824 4.125a1.75 1.75 0 0 0-1.75 1.75v5.063c0 .056.003.112.008.167v14.082c0 .967.784 1.75 1.75 1.75h24.344a1.75 1.75 0 0 0 1.75-1.75V9.781a1.75 1.75 0 0 0-1.75-1.75H17.31a2 2 0 0 1-1.381-.553l-2.932-2.8a2 2 0 0 0-1.381-.553H3.824Z" fill="url(#c)"/></g><g filter="url(#d)"><rect x="2.074" y="11.063" width="27.844" height="18.906" rx="1.75" fill="url(#e)"/></g><rect x="2.074" y="11.063" width="27.844" height="18.906" rx="1.75" fill="url(#f)"/><defs><linearGradient id="b" x1="16" y1="4.75" x2="16" y2="11.75" gradientUnits="userSpaceOnUse"><stop stop-color="#FFD152"/><stop offset="1" stop-color="#FFB83D"/></linearGradient><linearGradient id="c" x1="16.747" y1="11.316" x2="16.747" y2="10.343" gradientUnits="userSpaceOnUse"><stop stop-color="#FEB63B"/><stop offset="1" stop-color="#FEB63B" stop-opacity="0"/></linearGradient><linearGradient id="e" x1="15.996" y1="11.063" x2="15.996" y2="29.969" gradientUnits="userSpaceOnUse"><stop stop-color="#FFE155"/><stop offset="1" stop-color="#FFB45F"/></linearGradient><linearGradient id="f" x1="19.882" y1="30.183" x2="19.882" y2="28.246" gradientUnits="userSpaceOnUse"><stop stop-color="#F9928A"/><stop offset="1" stop-color="#FFAD5F" stop-opacity="0"/></linearGradient><filter id="a" x="1.774" y="4.125" width="28.252" height="23.113" filterUnits="userSpaceOnUse" color-interpolation-filters="sRGB"><feFlood flood-opacity="0" result="BackgroundImageFix"/><feBlend in="SourceGraphic" in2="BackgroundImageFix" result="shape"/><feColorMatrix in="SourceAlpha" values="0 0 0 0 0 0 0 0 0 0 0 0 0 0 0 0 0 0 127 0" result="hardAlpha"/><feOffset dx="-.3" dy=".3"/><feGaussianBlur stdDeviation=".375"/><feComposite in2="hardAlpha" operator="arithmetic" k2="-1" k3="1"/><feColorMatrix values="0 0 0 0 1 0 0 0 0 0.862745 0 0 0 0 0.337255 0 0 0 1 0"/><feBlend in2="shape" result="effect1_innerShadow_18_22534"/><feColorMatrix in="SourceAlpha" values="0 0 0 0 0 0 0 0 0 0 0 0 0 0 0 0 0 0 127 0" result="hardAlpha"/><feOffset dx=".1" dy=".1"/><feGaussianBlur stdDeviation=".3"/><feComposite in2="hardAlpha" operator="arithmetic" k2="-1" k3="1"/><feColorMatrix values="0 0 0 0 0.937255 0 0 0 0 0.67451 0 0 0 0 0.294118 0 0 0 1 0"/><feBlend in2="effect1_innerShadow_18_22534" result="effect2_innerShadow_18_22534"/></filter><filter id="d" x="1.974" y="10.963" width="28.044" height="19.306" filterUnits="userSpaceOnUse" color-interpolation-filters="sRGB"><feFlood flood-opacity="0" result="BackgroundImageFix"/><feBlend in="SourceGraphic" in2="BackgroundImageFix" result="shape"/><feColorMatrix in="SourceAlpha" values="0 0 0 0 0 0 0 0 0 0 0 0 0 0 0 0 0 0 127 0" result="hardAlpha"/><feOffset dx="-.1" dy=".3"/><feGaussianBlur stdDeviation=".375"/><feComposite in2="hardAlpha" operator="arithmetic" k2="-1" k3="1"/><feColorMatrix values="0 0 0 0 1 0 0 0 0 0.94902 0 0 0 0 0.32549 0 0 0 1 0"/><feBlend in2="shape" result="effect1_innerShadow_18_22534"/><feColorMatrix in="SourceAlpha" values="0 0 0 0 0 0 0 0 0 0 0 0 0 0 0 0 0 0 127 0" result="hardAlpha"/><feOffset dx=".1" dy="-.1"/><feGaussianBlur stdDeviation=".15"/><feComposite in2="hardAlpha" operator="arithmetic" k2="-1" k3="1"/><feColorMatrix values="0 0 0 0 0.941176 0 0 0 0 0.690196 0 0 0 0 0.364706 0 0 0 1 0"/><feBlend in2="effect1_innerShadow_18_22534" result="effect2_innerShadow_18_22534"/></filter></defs></svg>
